Hatter-kde-dark/actions/24/format-text-direction-ltr.svg

<?xml version="1.0" encoding="UTF-8"?>
<svg viewBox="0 0 24 24" xmlns="http://www.w3.org/2000/svg">
 <defs id="defs3051">
  <style id="current-color-scheme" type="text/css">.ColorScheme-Text {
        color:#dedede;
      }</style>
 </defs>
 <path class="ColorScheme-Text" d="m4 4v5h5v-5h-5zm6 0v1h10v-1h-10zm0 2v1h3v-1h-3zm-6 4v1h10v-1h-10zm0 2v1h4v-1h-4zm0 4v1h10v-1h-10zm0 2v1h7v-1h-7zm8 1v1h2v-1h-2z" fill="currentColor"/>
</svg>

<svg xmlns="http://www.w3.org/2000/svg" viewBox="0 0 24 24">
  <defs id="defs3051">
    <style type="text/css" id="current-color-scheme">
      .ColorScheme-Text {
        color:#dedede;
      }
      </style>
  </defs>
 <path style="fill:currentColor;fill-opacity:1;stroke:none" 
     d="M 4 4 L 4 9 L 9 9 L 9 4 L 4 4 z M 10 4 L 10 5 L 20 5 L 20 4 L 10 4 z M 10 6 L 10 7 L 13 7 L 13 6 L 10 6 z M 4 10 L 4 11 L 14 11 L 14 10 L 4 10 z M 4 12 L 4 13 L 8 13 L 8 12 L 4 12 z M 4 16 L 4 17 L 14 17 L 14 16 L 4 16 z M 4 18 L 4 19 L 11 19 L 11 18 L 4 18 z M 12 19 L 12 20 L 14 20 L 14 19 L 12 19 z "
     class="ColorScheme-Text"
     />
</svg>
